dist/img/i-viber.svg

<svg width="17" height="16" viewBox="0 0 17 16" fill="none" xmlns="http://www.w3.org/2000/svg">
<circle cx="8.93359" cy="8" r="8" fill="#8E79D0"/>
<g clip-path="url(#clip0)">
<path d="M12.5532 7.18169C12.5654 5.74618 11.3428 4.4302 9.82774 4.24822C9.79761 4.24464 9.76478 4.23921 9.73004 4.23345C9.65503 4.22102 9.57747 4.20825 9.49922 4.20825C9.18871 4.20825 9.10571 4.42636 9.08385 4.55646C9.0626 4.68294 9.08288 4.78915 9.14399 4.87229C9.24682 5.01212 9.42775 5.03693 9.57308 5.05684C9.61567 5.06273 9.65586 5.06819 9.68951 5.07575C11.0507 5.37991 11.509 5.8581 11.733 7.20772C11.7385 7.24069 11.741 7.28134 11.7436 7.32443C11.7534 7.48577 11.7737 7.82141 12.1346 7.82141H12.1346C12.1647 7.82141 12.197 7.81883 12.2306 7.8137C12.5666 7.76263 12.5561 7.45582 12.551 7.3084C12.5496 7.26688 12.5482 7.22761 12.5517 7.2015C12.5527 7.19491 12.5531 7.18829 12.5532 7.18169Z" fill="white"/>
<path d="M9.41102 3.72133C9.45133 3.72424 9.48951 3.72702 9.52129 3.73189C11.7565 4.07565 12.7844 5.13467 13.0693 7.38737C13.0742 7.42567 13.0749 7.47236 13.0757 7.52182C13.0785 7.69781 13.0844 8.06396 13.4776 8.07154L13.4898 8.07166C13.6131 8.07166 13.7112 8.03447 13.7814 7.96105C13.9038 7.83302 13.8953 7.64283 13.8884 7.48996C13.8867 7.45246 13.8851 7.41714 13.8855 7.38622C13.9139 5.08229 11.9196 2.9931 9.61773 2.91542C9.60819 2.9151 9.59908 2.91562 9.58987 2.91691C9.58536 2.91757 9.57697 2.9184 9.56261 2.9184C9.53966 2.9184 9.51142 2.91642 9.48147 2.91439C9.44526 2.9119 9.40422 2.90906 9.36261 2.90906C8.99603 2.90906 8.92635 3.16961 8.91744 3.32492C8.89688 3.68389 9.24413 3.70914 9.41102 3.72133Z" fill="white"/>
<path d="M12.9614 10.2987C12.9138 10.2624 12.8647 10.2249 12.8187 10.1878C12.5746 9.99139 12.315 9.81037 12.0639 9.63529C12.0118 9.599 11.9597 9.56267 11.9078 9.52623C11.5861 9.30031 11.297 9.19051 11.0238 9.19051C10.6558 9.19051 10.335 9.39383 10.0702 9.79474C9.95288 9.97248 9.81055 10.0589 9.63515 10.0589C9.53145 10.0589 9.41358 10.0293 9.28492 9.97089C8.24671 9.5001 7.50537 8.77827 7.08146 7.82544C6.87653 7.36491 6.94297 7.06389 7.30363 6.8189C7.50844 6.67989 7.88965 6.42111 7.86265 5.92556C7.83206 5.36282 6.5904 3.66956 6.06724 3.47726C5.84574 3.39581 5.61301 3.39505 5.37428 3.47537C4.77284 3.67756 4.34125 4.03263 4.12604 4.50212C3.91807 4.95579 3.92745 5.48846 4.1532 6.04257C4.80579 7.64465 5.72328 9.04147 6.88031 10.1941C8.01283 11.3225 9.40479 12.2467 11.0175 12.9411C11.1629 13.0037 11.3153 13.0378 11.4266 13.0627C11.4646 13.0712 11.4973 13.0785 11.5212 13.085C11.5344 13.0886 11.5479 13.0906 11.5615 13.0907L11.5742 13.0907C11.5742 13.0907 11.5742 13.0907 11.5743 13.0907C12.3328 13.0907 13.2435 12.3976 13.5233 11.6074C13.7683 10.9155 13.3209 10.5735 12.9614 10.2987Z" fill="white"/>
<path d="M9.7466 5.55142C9.61674 5.55471 9.34647 5.56141 9.25165 5.83667C9.20729 5.9653 9.2126 6.07698 9.26746 6.16861C9.34796 6.30307 9.50222 6.34427 9.64252 6.36688C10.1513 6.44853 10.4126 6.72988 10.4649 7.25226C10.4892 7.49582 10.6532 7.66591 10.8638 7.66591H10.8638C10.8794 7.66591 10.8953 7.665 10.9111 7.66307C11.1644 7.63294 11.2872 7.44684 11.2761 7.11003C11.2802 6.7585 11.0962 6.35942 10.7833 6.04154C10.4693 5.72268 10.0909 5.54311 9.7466 5.55142Z" fill="white"/>
</g>
<defs>
<clipPath id="clip0">
<rect x="3.8432" y="2.90906" width="10.1818" height="10.1818" fill="white"/>
</clipPath>
</defs>
</svg>

<svg width="17" height="16" fill="none" xmlns="http://www.w3.org/2000/svg"><circle cx="8.934" cy="8" r="8" fill="#8E79D0"/><g clip-path="url(#clip0)" fill="#fff"><path d="M12.553 7.182c.012-1.436-1.21-2.752-2.725-2.934a2.217 2.217 0 0 1-.098-.015 1.416 1.416 0 0 0-.23-.025c-.311 0-.394.218-.416.348a.402.402 0 0 0 .06.316c.103.14.284.165.43.185.042.006.082.011.116.019 1.36.304 1.819.782 2.043 2.132a1.2 1.2 0 0 1 .01.116c.01.162.03.497.392.497a.64.64 0 0 0 .096-.007c.336-.051.325-.358.32-.506-.001-.041-.003-.08 0-.106a.147.147 0 0 0 .002-.02z"/><path d="M9.411 3.721c.04.003.079.006.11.01 2.236.345 3.263 1.404 3.548 3.656.005.039.006.085.007.135.002.176.008.542.402.55h.012a.386.386 0 0 0 .291-.11c.123-.129.114-.32.107-.472a1.87 1.87 0 0 1-.002-.104c.028-2.304-1.966-4.393-4.268-4.47a.16.16 0 0 0-.028 0 .193.193 0 0 1-.027.002c-.023 0-.052-.002-.082-.004-.036-.002-.077-.005-.118-.005-.367 0-.437.26-.446.416-.02.359.327.384.494.396zm3.55 6.578a13.667 13.667 0 0 0-.897-.663 50.892 50.892 0 0 1-.156-.11c-.322-.226-.611-.335-.884-.335-.368 0-.689.203-.954.604-.117.177-.26.264-.435.264a.864.864 0 0 1-.35-.088C8.247 9.5 7.505 8.778 7.08 7.825c-.204-.46-.138-.761.223-1.006.204-.14.586-.398.559-.893-.03-.563-1.273-2.256-1.796-2.449a1.02 1.02 0 0 0-.693-.002c-.601.203-1.033.558-1.248 1.027-.208.454-.199.986.027 1.54.653 1.603 1.57 3 2.727 4.152 1.133 1.128 2.525 2.053 4.138 2.747.145.063.297.097.409.122.038.008.07.015.094.022a.157.157 0 0 0 .04.006h.013c.759 0 1.67-.693 1.95-1.484.244-.691-.203-1.034-.563-1.308zM9.747 5.551c-.13.004-.4.01-.495.286-.045.128-.04.24.015.332.081.134.235.175.376.198.508.082.77.363.822.885.024.244.188.414.399.414l.047-.003c.253-.03.376-.216.365-.553.004-.352-.18-.75-.493-1.068-.314-.32-.692-.499-1.036-.49z"/></g><defs><clipPath id="clip0"><path fill="#fff" d="M3.843 2.909h10.182v10.182H3.843z"/></clipPath></defs></svg>
